X:71
T:La marche de l'ouverture
C:Gino Lavoie
S:Gino Lavoie, La Grande Rencontre 2010
R:reel
M:4/4
L:1/4
K:D
A/de |: ff/f/ gf | e>Acd | e/e/c/e/ fe | d>AFA | dd/d/ ed |1
c>dcB | AcBA | F>Ade :|2 B3 d | c>ABc | d>edc |:
B>dcB | A>dcd | ecde | f>dcd |
B>dcB | A>dcd | eABc |1 d>edc :|1 d>Ade |]
